public/images/icon_id_sector_empresa_18.svg

<svg width="42" height="42" viewBox="0 0 42 42" fill="none" xmlns="http://www.w3.org/2000/svg">
<path d="M25.725 30.6201H16.2881C15.9206 30.6201 15.6188 30.8957 15.6188 31.2239C15.6188 31.5782 15.9075 31.8539 16.2881 31.8539H25.725C26.1056 31.8539 26.3944 31.5782 26.3944 31.2239C26.3944 30.8695 26.0925 30.6201 25.725 30.6201Z" fill="url(#paint0_linear_133_1157)"/>
<path d="M13.1906 33.9411H28.8094C29.1637 33.9411 29.4525 33.6523 29.4525 33.3111V29.1373C29.4525 28.7961 29.1637 28.5073 28.8094 28.5073H13.1906C12.8231 28.5073 12.5212 28.7961 12.5212 29.1373V33.3111C12.5212 33.6523 12.8231 33.9411 13.1906 33.9411ZM13.86 32.7073V29.7673H28.14V32.7073H13.86Z" fill="url(#paint1_linear_133_1157)"/>
<path d="M35.3062 22.1941H31.4737L31.9593 13.9122C32.0512 12.4028 30.9356 11.0116 29.3475 10.6309C29.7281 9.75156 30.5943 8.38656 32.3925 7.92719C32.7337 7.84844 32.9568 7.50719 32.865 7.17906C32.7468 6.83781 32.3925 6.64094 32.0512 6.71969C30.8962 7.00844 29.925 7.61219 29.1375 8.51781V5.56469C29.1375 5.22344 28.8487 4.96094 28.4943 4.96094C28.14 4.96094 27.825 5.23656 27.825 5.56469V8.51781C27.0506 7.61219 26.0793 7.00844 24.9243 6.71969C24.5437 6.64094 24.2025 6.83781 24.1106 7.17906C24.0712 7.33656 24.0975 7.50719 24.1762 7.63844C24.2681 7.78281 24.4125 7.87469 24.57 7.91406C26.3681 8.38656 27.2212 9.75156 27.6018 10.6309C26.9718 10.8016 26.3943 11.1166 25.9087 11.5628C25.2656 12.2059 24.9375 13.0459 24.9768 13.9122L25.4625 22.1941H24.0318L24.6487 12.3503C24.6881 11.3659 24.3206 10.4209 23.5856 9.69906C22.7981 8.92469 21.6956 8.47844 20.5406 8.47844C19.3856 8.47844 18.27 8.93781 17.5218 9.69906C16.7737 10.4472 16.3931 11.3922 16.4587 12.3503L17.0493 22.1941H15.96V17.4034C15.96 16.5109 15.6843 15.5266 15.4087 14.4897L15.3562 14.2928C14.9756 13.0197 14.6343 11.7597 14.5556 10.3816C14.91 10.3816 15.1987 10.0928 15.1987 9.75156V8.03219C15.1987 7.69094 14.91 7.40219 14.5556 7.40219H10.2637C9.90935 7.40219 9.6206 7.69094 9.6206 8.03219V9.75156C9.6206 10.0928 9.90935 10.3816 10.2637 10.3816C10.185 11.7597 9.8306 13.0197 9.4631 14.2928L9.4106 14.4897C9.12185 15.5266 8.85935 16.4978 8.85935 17.3903V22.1809H6.71997C6.33935 22.1809 6.0506 22.4566 6.0506 22.8109V26.0528C6.0506 26.4072 6.33935 26.6828 6.71997 26.6828H7.45497L9.3056 36.4478C9.33185 36.7628 9.60747 36.9991 9.94872 36.9991H32.0643C32.4056 36.9991 32.6812 36.7759 32.7337 36.4609L34.5843 26.6828H35.3193C35.7 26.6828 35.9887 26.4072 35.9887 26.0528V22.8109C35.9887 22.4566 35.7 22.1809 35.3193 22.1809L35.3062 22.1941ZM33.2193 26.6959L31.4868 35.7784H10.5L8.76747 26.6959H33.2193ZM10.92 9.14781V8.66219H13.8731V9.14781H10.92ZM13.2168 10.3947C13.2956 11.8778 13.6762 13.2297 14.0175 14.4109L14.1487 14.8572C14.4243 15.8284 14.6606 16.6684 14.6606 17.4034V22.1941H10.1718V17.4034C10.1718 16.6028 10.4475 15.6447 10.7231 14.6209L10.7887 14.3978C11.13 13.2034 11.5106 11.8647 11.5893 10.3816H13.23L13.2168 10.3947ZM18.2043 10.8803C18.2831 10.7622 18.3881 10.6572 18.4931 10.5653C19.0181 10.0272 19.7662 9.72531 20.5537 9.72531C21.3412 9.72531 22.1025 10.0272 22.6275 10.5653C23.1131 11.0378 23.3493 11.6416 23.31 12.2716L23.2575 13.4003L18.1912 10.8803H18.2043ZM22.7718 21.2753L22.7193 22.1941H18.4012L18.2175 19.0047L22.7718 21.2753ZM22.9687 18.0334L22.8637 19.9234L18.1387 17.5478L18.0075 15.5397L22.9687 18.0334ZM17.7975 12.2716C17.7975 12.2716 17.7975 12.1534 17.7975 12.0878L23.1918 14.7653L23.0606 16.6553L17.9156 14.0828L17.7975 12.2716ZM27.7725 16.9834C27.7725 17.3247 28.0612 17.6134 28.4156 17.6134H30.4106L30.1481 22.1941H26.8012L26.6962 20.2909H28.6781C29.0325 20.2909 29.3475 20.0022 29.3475 19.6609C29.3475 19.3197 29.0456 19.0309 28.6781 19.0309H26.6175L26.3812 14.9359H28.2975C28.6781 14.9359 28.9668 14.6603 28.9668 14.3059C28.9668 13.9516 28.6781 13.6759 28.2975 13.6759H26.3156C26.3418 13.2166 26.5387 12.7834 26.8931 12.4291C27.3 12.0091 27.8775 11.7728 28.4943 11.7728H28.6387C29.7937 11.8516 30.7256 12.7966 30.66 13.8466L30.5156 16.3534H28.4287C28.0743 16.3534 27.7856 16.6422 27.7856 16.9834H27.7725ZM34.6368 23.4541V25.4359H7.33685V23.4541H9.2531C9.2531 23.4541 9.39747 23.4934 9.50247 23.4934H15.3168C15.4218 23.4934 15.5006 23.4672 15.5662 23.4541H34.65H34.6368Z" fill="url(#paint2_linear_133_1157)"/>
<path d="M12.4162 20.8162C13.4531 20.8162 14.2931 20.0156 14.2931 19.0312C14.2931 18.0468 13.4269 17.2725 12.4162 17.2725C11.4056 17.2725 10.5131 18.06 10.5131 19.0312C10.5131 20.0025 11.3662 20.8162 12.4162 20.8162ZM11.8519 19.0312C11.8519 18.7556 12.1012 18.5193 12.4162 18.5193C12.705 18.5193 12.9544 18.7556 12.9544 19.0312C12.9544 19.32 12.7181 19.5562 12.4162 19.5562C12.1012 19.5562 11.8519 19.32 11.8519 19.0312Z" fill="url(#paint3_linear_133_1157)"/>
<defs>
<linearGradient id="paint0_linear_133_1157" x1="20.9001" y1="30.6201" x2="21.1289" y2="31.8509" gradientUnits="userSpaceOnUse">
<stop stop-color="#192644"/>
<stop offset="1" stop-color="#1A4081"/>
</linearGradient>
<linearGradient id="paint1_linear_133_1157" x1="20.8195" y1="28.5073" x2="23.1177" y2="32.918" gradientUnits="userSpaceOnUse">
<stop stop-color="#192644"/>
<stop offset="1" stop-color="#1A4081"/>
</linearGradient>
<linearGradient id="paint2_linear_133_1157" x1="20.7237" y1="4.96094" x2="35.0196" y2="13.1889" gradientUnits="userSpaceOnUse">
<stop stop-color="#192644"/>
<stop offset="1" stop-color="#1A4081"/>
</linearGradient>
<linearGradient id="paint3_linear_133_1157" x1="12.3658" y1="17.2725" x2="14.0442" y2="18.3752" gradientUnits="userSpaceOnUse">
<stop stop-color="#192644"/>
<stop offset="1" stop-color="#1A4081"/>
</linearGradient>
</defs>
</svg>

<svg xmlns="http://www.w3.org/2000/svg" fill="none" viewBox="0 0 42 42"><path fill="url(#a)" d="M25.73 30.62h-9.44c-.37 0-.67.28-.67.6 0 .36.29.63.67.63h9.44c.38 0 .66-.27.66-.63 0-.35-.3-.6-.66-.6Z"/><path fill="url(#b)" d="M13.2 33.94h15.6c.36 0 .65-.29.65-.63v-4.17a.64.64 0 0 0-.64-.63H13.19c-.37 0-.67.29-.67.63v4.17c0 .34.3.63.67.63Zm.66-1.23v-2.94h14.28v2.94H13.86Z"/><path fill="url(#c)" d="M35.3 22.2h-3.83l.49-8.29c.1-1.5-1.02-2.9-2.61-3.28a4.56 4.56 0 0 1 3.04-2.7c.34-.08.57-.42.48-.75a.7.7 0 0 0-.82-.46c-1.15.29-2.12.9-2.91 1.8V5.56c0-.34-.3-.6-.65-.6-.35 0-.66.28-.66.6v2.96a5.5 5.5 0 0 0-2.9-1.8c-.39-.08-.73.12-.82.46a.62.62 0 0 0 .07.46c.09.14.23.23.39.27a4.57 4.57 0 0 1 3.03 2.72c-.63.17-1.2.49-1.7.93a3.1 3.1 0 0 0-.92 2.35l.48 8.28h-1.43l.62-9.84a3.48 3.48 0 0 0-1.06-2.65 4.35 4.35 0 0 0-6.07 0 3.42 3.42 0 0 0-1.06 2.65l.59 9.84h-1.09V17.4c0-.89-.28-1.87-.55-2.91l-.05-.2a16.83 16.83 0 0 1-.8-3.9c.35 0 .64-.3.64-.64V8.03a.64.64 0 0 0-.64-.63h-4.3a.64.64 0 0 0-.64.63v1.72c0 .34.29.63.64.63a17.53 17.53 0 0 1-.8 3.91l-.05.2c-.29 1.04-.55 2-.55 2.9v4.8H6.72c-.38 0-.67.27-.67.62v3.24c0 .36.29.63.67.63h.73l1.86 9.77c.02.31.3.55.64.55h22.11c.35 0 .62-.22.67-.54l1.85-9.78h.74c.38 0 .67-.27.67-.63v-3.24c0-.35-.29-.63-.67-.63l-.01.01Zm-2.08 4.5-1.73 9.08H10.5L8.77 26.7h24.45ZM10.92 9.15v-.49h2.95v.49h-2.95Zm2.3 1.24c.08 1.49.46 2.84.8 4.02l.13.45c.27.97.51 1.8.51 2.54v4.8h-4.49v-4.8c0-.8.28-1.76.55-2.78l.07-.22c.34-1.2.72-2.54.8-4.02h1.64l-.01.01Zm4.98.49c.08-.12.19-.22.3-.31a2.87 2.87 0 0 1 2.05-.84c.8 0 1.55.3 2.08.84.48.47.72 1.07.68 1.7l-.05 1.13-5.07-2.52h.01Zm4.57 10.4-.05.91H18.4L18.22 19l4.55 2.28Zm.2-3.25-.1 1.9-4.73-2.38-.13-2.01 4.96 2.5Zm-5.17-5.76v-.18l5.4 2.68-.14 1.89-5.14-2.58-.12-1.8Zm9.97 4.71c0 .34.3.63.65.63h2l-.27 4.58H26.8l-.1-1.9h1.98c.35 0 .67-.29.67-.63s-.3-.63-.67-.63h-2.06l-.24-4.1h1.92c.38 0 .67-.27.67-.62 0-.36-.3-.63-.67-.63h-1.98c.02-.46.22-.9.57-1.25.41-.42.99-.66 1.6-.66h.15c1.15.08 2.09 1.03 2.02 2.08l-.14 2.5h-2.1a.64.64 0 0 0-.63.63h-.02Zm6.87 6.47v1.99H7.34v-1.99h1.91s.15.04.25.04h5.82c.1 0 .18-.02.25-.04h19.08-.01Z"/><path fill="url(#d)" d="M12.42 20.82c1.03 0 1.87-.8 1.87-1.79 0-.98-.86-1.76-1.87-1.76-1.01 0-1.9.79-1.9 1.76s.85 1.79 1.9 1.79Zm-.57-1.79c0-.27.25-.51.57-.51.29 0 .53.24.53.51 0 .29-.23.53-.53.53-.32 0-.57-.24-.57-.53Z"/><defs><linearGradient id="a" x1="20.9" x2="21.13" y1="30.62" y2="31.85" gradientUnits="userSpaceOnUse"><stop stop-color="#192644"/><stop offset="1" stop-color="#1A4081"/></linearGradient><linearGradient id="b" x1="20.82" x2="23.12" y1="28.51" y2="32.92" gradientUnits="userSpaceOnUse"><stop stop-color="#192644"/><stop offset="1" stop-color="#1A4081"/></linearGradient><linearGradient id="c" x1="20.72" x2="35.02" y1="4.96" y2="13.19" gradientUnits="userSpaceOnUse"><stop stop-color="#192644"/><stop offset="1" stop-color="#1A4081"/></linearGradient><linearGradient id="d" x1="12.37" x2="14.04" y1="17.27" y2="18.38" gradientUnits="userSpaceOnUse"><stop stop-color="#192644"/><stop offset="1" stop-color="#1A4081"/></linearGradient></defs></svg>
